**harm	**harte	**kern	**silbe	**rhyme	**timestamp	**phrase	**leadinstrument
*M4/4	*M4/4	*ICvox	*	*	*	*	*
*	*	*VRlead	*	*	*	*	*
*	*	*Hstimme	*	*	*	*	*
*D:	*D:	*D:	*	*	*	*	*
*	*	*M4/4	*	*	*	*	*
*	*	*clefF4	*	*	*	*	*
1r;	N	r;	.	.	0	.	r
=1	=1	=1	=1	=1	=1	=1	=1
*>Letter>A	*>Letter>A	*>Letter>A	*>Letter>A	*>Letter>A	*>Letter>A	*>Letter>A	*>Letter>A
*>Label>Intro	*>Label>Intro	*>Label>Intro	*>Label>Intro	*>Label>Intro	*>Label>Intro	*>Label>Intro	*>Label>Intro
1I	D:maj	1r	.	.	0.041	newline	synthesizer
=2	=2	=2	=2	=2	=2	=2	=2
1I	D:maj	1r	.	.	2.22	.	synthesizer
=3	=3	=3	=3	=3	=3	=3	=3
1I	D:maj	1r	.	.	4.4	.	synthesizer
=4	=4	=4	=4	=4	=4	=4	=4
1I	D:maj	1r	.	.	6.58	.	synthesizer
=5	=5	=5	=5	=5	=5	=5	=5
1I	D:maj	1r	.	.	8.759	newline	synthesizer
=6	=6	=6	=6	=6	=6	=6	=6
1V	A:sus4(b7)	1r	.	.	10.943	.	synthesizer
=7	=7	=7	=7	=7	=7	=7	=7
1vi7	B:min7	1r	.	.	13.126	.	synthesizer
=8	=8	=8	=8	=8	=8	=8	=8
1IV7	G:maj9	1r	.	.	15.31	.	synthesizer
=9	=9	=9	=9	=9	=9	=9	=9
1I	D:maj	1r	.	.	17.493	newline	synthesizer
=10	=10	=10	=10	=10	=10	=10	=10
1V	A:sus4(b7)	1r	.	.	19.671	.	synthesizer
=11	=11	=11	=11	=11	=11	=11	=11
1vi7	B:min7	1r	.	.	21.848	.	synthesizer
=12	=12	=12	=12	=12	=12	=12	=12
1IV7	G:maj9	1r	.	.	24.026	.	synthesizer
=13	=13	=13	=13	=13	=13	=13	=13
*>Letter>B	*>Letter>B	*>Letter>B	*>Letter>B	*>Letter>B	*>Letter>B	*>Letter>B	*>Letter>B
*>Label>Verse	*>Label>Verse	*>Label>Verse	*>Label>Verse	*>Label>Verse	*>Label>Verse	*>Label>Verse	*>Label>Verse
1I	D:maj	2r	.	.	26.203	newline	voice
.	.	8r	.	.	.	.	.
.	.	8D	See	.	.	.	.
.	.	8E	the	.	.	.	.
.	.	[8F#	stone	.	.	.	.
=14	=14	=14	=14	=14	=14	=14	=14
1V	A:sus4(b7)	4F#]	_	.	28.398	.	voice
.	.	4E	set	.	.	.	.
.	.	8D	in	.	.	.	.
.	.	4E	your	.	.	.	.
.	.	8E	eyes	A	.	.	.
=15	=15	=15	=15	=15	=15	=15	=15
1vi7	B:min7	2F#	_	.	30.592	.	voice
.	.	8r	.	.	.	.	.
.	.	8F#	See	.	.	.	.
.	.	8G	the	.	.	.	.
.	.	[8F#	thorn	.	.	.	.
=16	=16	=16	=16	=16	=16	=16	=16
1IV7	G:maj9	4F#]	_	.	32.787	.	voice
.	.	4E	twist	.	.	.	.
.	.	8D	in	.	.	.	.
.	.	4E	your	.	.	.	.
.	.	[8D	side	A	.	.	.
=17	=17	=17	=17	=17	=17	=17	=17
1I	D:maj	4D]	_	.	34.982	newline	voice
.	.	4r	.	.	.	.	.
.	.	8r	.	.	.	.	.
.	.	4D	I'll	.	.	.	.
.	.	[8A	wait	B	.	.	.
=18	=18	=18	=18	=18	=18	=18	=18
1V	A:sus4(b7)	2A]	_	.	37.171	.	voice
.	.	4r	.	.	.	.	.
.	.	8AA	for	.	.	.	.
.	.	[8BB	you	.	.	.	.
=19	=19	=19	=19	=19	=19	=19	=19
1vi7	B:min7	2BB]	_	.	39.36	.	voice
.	.	2r	.	.	.	.	.
=20	=20	=20	=20	=20	=20	=20	=20
1IV7	G:maj9	1r	.	.	41.549	.	voice
=21	=21	=21	=21	=21	=21	=21	=21
1I	D:maj	2r	.	.	43.737	newline	voice
.	.	8r	.	.	.	.	.
.	.	8F#	Slight	.	.	.	.
.	.	8F#	of	.	.	.	.
.	.	[8F#	hand	.	.	.	.
=22	=22	=22	=22	=22	=22	=22	=22
1V	A:sus4(b7)	4F#]	_	.	45.913	.	voice
.	.	4E	and	.	.	.	.
.	.	8D	twist	.	.	.	.
.	.	4E	of	.	.	.	.
.	.	[8F#	fate	B	.	.	.
=23	=23	=23	=23	=23	=23	=23	=23
1vi7	B:min7	4F#]	_	.	48.09	.	voice
.	.	8r	.	.	.	.	.
.	.	16AA	On	.	.	.	.
.	.	16AA	a	.	.	.	.
.	.	8F#	bed	.	.	.	.
.	.	4G	of	.	.	.	.
.	.	[8F#	nails	.	.	.	.
=24	=24	=24	=24	=24	=24	=24	=24
1IV7	G:maj9	4F#]	_	.	50.266	.	voice
.	.	4E	she	.	.	.	.
.	.	8D	makes	.	.	.	.
.	.	4E	me	.	.	.	.
.	.	[8D	wait	B	.	.	.
=25	=25	=25	=25	=25	=25	=25	=25
1I	D:maj	4D]	_	.	52.442	newline	voice
.	.	4r	.	.	.	.	.
.	.	8r	.	.	.	.	.
.	.	8D	And	.	.	.	.
.	.	8D	I	.	.	.	.
.	.	[8A	wait	B	.	.	.
=26	=26	=26	=26	=26	=26	=26	=26
1V	A:sus4(b7)	2A]	_	.	54.615	.	voice
.	.	4r	.	.	.	.	.
.	.	8AA	with-	.	.	.	.
.	.	[8BB	-out	.	.	.	.
=27	=27	=27	=27	=27	=27	=27	=27
1vi7	B:min7	8BB]	_	.	56.789	.	voice
.	.	[4.F#	you	.	.	.	.
.	.	4F#]	_	.	.	.	.
.	.	4r	.	.	.	.	.
=28	=28	=28	=28	=28	=28	=28	=28
1IV7	G:maj9	2r	.	.	58.962	.	voice
.	.	8D	With	.	.	.	.
.	.	8D	or	.	.	.	.
.	.	8D	with-	.	.	.	.
.	.	[8E	-out	.	.	.	.
=29	=29	=29	=29	=29	=29	=29	=29
*>Letter>C2	*>Letter>C2	*>Letter>C2	*>Letter>C2	*>Letter>C2	*>Letter>C2	*>Letter>C2	*>Letter>C2
*>Label>Chorus	*>Label>Chorus	*>Label>Chorus	*>Label>Chorus	*>Label>Chorus	*>Label>Chorus	*>Label>Chorus	*>Label>Chorus
1I	D:maj	8E]	_	.	61.135	newline	voice
.	.	[4.F#	you	.	.	.	.
.	.	2F#]	_	.	.	.	.
=30	=30	=30	=30	=30	=30	=30	=30
1V	A:sus4(b7)	2r	.	.	63.33	.	voice
.	.	8E	With	.	.	.	.
.	.	4E	or	.	.	.	.
.	.	8F#	with-	.	.	.	.
=31	=31	=31	=31	=31	=31	=31	=31
1vi7	B:min7	4.E	-out	.	65.524	.	voice
.	.	4D	_	.	.	.	.
.	.	[4.D	you	.	.	.	.
=32	=32	=32	=32	=32	=32	=32	=32
1IV7	G:maj9	4D]	_	.	67.719	.	voice
.	.	4r	.	.	.	.	.
.	.	2r	.	.	.	.	.
=33	=33	=33	=33	=33	=33	=33	=33
*>Letter>B2	*>Letter>B2	*>Letter>B2	*>Letter>B2	*>Letter>B2	*>Letter>B2	*>Letter>B2	*>Letter>B2
*>Label>Verse	*>Label>Verse	*>Label>Verse	*>Label>Verse	*>Label>Verse	*>Label>Verse	*>Label>Verse	*>Label>Verse
1I	D:maj	2r	.	.	69.913	newline	voice
.	.	8r	.	.	.	.	.
.	.	8F#	Through	.	.	.	.
.	.	8F#	the	.	.	.	.
.	.	[8F#	storm	C	.	.	.
=34	=34	=34	=34	=34	=34	=34	=34
1V	A:sus4(b7)	4F#]	_	.	72.095	.	voice
.	.	4E	we	.	.	.	.
.	.	8D	reach	.	.	.	.
.	.	4E	the	.	.	.	.
.	.	[8F#	shore	C	.	.	.
=35	=35	=35	=35	=35	=35	=35	=35
1vi7	B:min7	4F#]	_	.	74.277	.	voice
.	.	8r	.	.	.	.	.
.	.	8AA	You	.	.	.	.
.	.	8F#	give	.	.	.	.
.	.	4G	it	.	.	.	.
.	.	[8F#	all	.	.	.	.
=36	=36	=36	=36	=36	=36	=36	=36
1IV7	G:maj9	4F#]	_	.	76.459	.	voice
.	.	8E	but	.	.	.	.
.	.	4D	I	.	.	.	.
.	.	4E	want	.	.	.	.
.	.	[8D	more	C	.	.	.
=37	=37	=37	=37	=37	=37	=37	=37
1I	D:maj	4D]	_	.	78.641	newline	voice
.	.	4r	.	.	.	.	.
.	.	8r	.	.	.	.	.
.	.	8D	And	.	.	.	.
.	.	8D	I'm	.	.	.	.
.	.	[8A	wait-	.	.	.	.
=38	=38	=38	=38	=38	=38	=38	=38
1V	A:sus4(b7)	2A]	_	.	80.828	.	voice
.	.	4r	.	.	.	.	.
.	.	8AA	-ing	.	.	.	.
.	.	[8BB	for	C	.	.	.
=39	=39	=39	=39	=39	=39	=39	=39
1vi7	B:min7	8BB]	_	.	83.014	.	voice
.	.	4.F#	you	.	.	.	.
.	.	2r	.	.	.	.	.
=40	=40	=40	=40	=40	=40	=40	=40
1IV7	G:maj9	2r	.	.	85.2	.	voice
.	.	8D	With	.	.	.	.
.	.	8D	or	C	.	.	.
.	.	8D	with-	.	.	.	.
.	.	[8E	-out	.	.	.	.
=41	=41	=41	=41	=41	=41	=41	=41
*>Letter>C	*>Letter>C	*>Letter>C	*>Letter>C	*>Letter>C	*>Letter>C	*>Letter>C	*>Letter>C
*>Label>Chorus	*>Label>Chorus	*>Label>Chorus	*>Label>Chorus	*>Label>Chorus	*>Label>Chorus	*>Label>Chorus	*>Label>Chorus
1I	D:maj	8E]	_	.	87.387	newline	voice
.	.	[4.F#	you	.	.	.	.
.	.	2F#]	_	.	.	.	.
=42	=42	=42	=42	=42	=42	=42	=42
1V	A:sus4(b7)	2r	.	.	89.562	.	voice
.	.	8e	With	.	.	.	.
.	.	4e	or	.	.	.	.
.	.	[8a	with-	.	.	.	.
=43	=43	=43	=43	=43	=43	=43	=43
1vi7	B:min7	8a]	_	.	91.737	.	voice
.	.	4g	-out	.	.	.	.
.	.	4f#	you	.	.	.	.
.	.	4e	ah	.	.	.	.
.	.	[8d	_	.	.	.	.
=44	=44	=44	=44	=44	=44	=44	=44
1IV7	G:maj9	4d]	_	.	93.912	.	voice
.	.	4r	.	.	.	.	.
.	.	8d	I	.	.	.	.
.	.	4e	can't	.	.	.	.
.	.	[8f#	live	.	.	.	.
=45	=45	=45	=45	=45	=45	=45	=45
1I	D:maj	2f#]	_	.	96.088	newline	voice
.	.	2r	.	.	.	.	.
=46	=46	=46	=46	=46	=46	=46	=46
1V	A:sus4(b7)	2r	.	.	98.278	.	voice
.	.	8e	with	.	.	.	.
.	.	4e	or	.	.	.	.
.	.	8f#	with-	.	.	.	.
=47	=47	=47	=47	=47	=47	=47	=47
1vi7	B:min7	4.e	-out	.	100.468	.	voice
.	.	4d	_	.	.	.	.
.	.	4.d	you	.	.	.	.
=48	=48	=48	=48	=48	=48	=48	=48
1IV7	G:maj9	1r	.	.	102.658	.	voice
=49	=49	=49	=49	=49	=49	=49	=49
1I	D:maj	1r	.	.	104.849	newline	guitar
=50	=50	=50	=50	=50	=50	=50	=50
1V	A:sus4(b7)	1r	.	.	107.021	.	guitar
=51	=51	=51	=51	=51	=51	=51	=51
1vi7	B:min7	1r	.	.	109.193	.	guitar
=52	=52	=52	=52	=52	=52	=52	=52
1IV7	G:maj9	2r	.	.	111.365	.	guitar
.	.	8r	.	.	.	.	.
.	.	8d	And	.	.	.	.
.	.	4d	you	.	.	.	.
=53	=53	=53	=53	=53	=53	=53	=53
*>Letter>D	*>Letter>D	*>Letter>D	*>Letter>D	*>Letter>D	*>Letter>D	*>Letter>D	*>Letter>D
*>Label>Bridge	*>Label>Bridge	*>Label>Bridge	*>Label>Bridge	*>Label>Bridge	*>Label>Bridge	*>Label>Bridge	*>Label>Bridge
1I	D:maj	4.e	give	.	113.537	newline	voice
.	.	8d	your-	.	.	.	.
.	.	4d	-self	.	.	.	.
.	.	8B	a-	.	.	.	.
.	.	[8B	-way	B	.	.	.
=54	=54	=54	=54	=54	=54	=54	=54
1IV7	G:maj9	8B]	_	.	115.71	.	voice
.	.	4.A	_	.	.	.	.
.	.	8r	.	.	.	.	.
.	.	8d	And	.	.	.	.
.	.	8d	you	.	.	.	.
.	.	[8e	give	.	.	.	.
=55	=55	=55	=55	=55	=55	=55	=55
1I	D:maj	4.e]	_	.	117.884	.	voice
.	.	8d	your-	.	.	.	.
.	.	4d	-self	.	.	.	.
.	.	8B	a-	.	.	.	.
.	.	[8B	-way	.	.	.	.
=56	=56	=56	=56	=56	=56	=56	=56
1IV7	G:maj9	8B]	_	.	120.057	.	voice
.	.	4.A	_	.	.	.	.
.	.	8r	.	.	.	.	.
.	.	8d	And	.	.	.	.
.	.	8d	you	.	.	.	.
.	.	[8e	give	.	.	.	.
=57	=57	=57	=57	=57	=57	=57	=57
1I	D:maj	2e]	_	.	122.231	newline	voice
.	.	8r	.	.	.	.	.
.	.	8d	And	.	.	.	.
.	.	8d	you	.	.	.	.
.	.	[8e	give	.	.	.	.
=58	=58	=58	=58	=58	=58	=58	=58
1IV7	G:maj9	2e]	_	.	124.417	.	voice
.	.	8r	.	.	.	.	.
.	.	8d	And	.	.	.	.
.	.	4d	you	.	.	.	.
=59	=59	=59	=59	=59	=59	=59	=59
1vi7	B:min7	4.e	give	.	126.603	.	voice
.	.	8d	your-	.	.	.	.
.	.	4d	-self	.	.	.	.
.	.	8B	a-	.	.	.	.
.	.	[8B	-way	.	.	.	.
=60	=60	=60	=60	=60	=60	=60	=60
1IV7	G:maj9	8B]	_	.	128.79	.	voice
.	.	[4.A	_	.	.	.	.
.	.	4A]	_	.	.	.	.
.	.	4r	.	.	.	.	.
=61	=61	=61	=61	=61	=61	=61	=61
1I	D:maj	4.r	.	.	130.976	newline	voice
.	.	8AA	My	.	.	.	.
.	.	8F#	hands	.	.	.	.
.	.	4F#	are	.	.	.	.
.	.	[8E	tied	.	.	.	.
=62	=62	=62	=62	=62	=62	=62	=62
1IV7	G:maj9	4E]	_	.	133.16	.	voice
.	.	4r	.	.	.	.	.
.	.	2r	.	.	.	.	.
=63	=63	=63	=63	=63	=63	=63	=63
1I	D:maj	4.r	.	.	135.344	.	voice
.	.	8AA	My	.	.	.	.
.	.	8F#	bo-	.	.	.	.
.	.	4F#	-dy	.	.	.	.
.	.	[8E	bruised	D	.	.	.
=64	=64	=64	=64	=64	=64	=64	=64
1IV7	G:maj9	4E]	_	.	137.529	.	voice
.	.	8F#	she	.	.	.	.
.	.	4E	got	.	.	.	.
.	.	4D	me	.	.	.	.
.	.	[8D	with	.	.	.	.
=65	=65	=65	=65	=65	=65	=65	=65
1I	D:maj	4D]	_	.	139.713	newline	voice
.	.	4r	.	.	.	.	.
.	.	8A	No-	.	.	.	.
.	.	8A	-thing	.	.	.	.
.	.	8A	to	.	.	.	.
.	.	8B	win	.	.	.	.
=66	=66	=66	=66	=66	=66	=66	=66
1IV7	G:maj9	4.A	_	.	141.908	.	voice
.	.	4.A	and	.	.	.	.
.	.	4r	.	.	.	.	.
=67	=67	=67	=67	=67	=67	=67	=67
1vi7	B:min7	8B	No-	.	144.104	.	voice
.	.	4d	-thing	.	.	.	.
.	.	4.d	left	.	.	.	.
.	.	8d	to	.	.	.	.
.	.	8e	lose	D	.	.	.
=68	=68	=68	=68	=68	=68	=68	=68
1IV7	G:maj9	2d	_	.	146.299	.	voice
.	.	8r	.	.	.	.	.
.	.	8d	And	.	.	.	.
.	.	4d	you	.	.	.	.
=69	=69	=69	=69	=69	=69	=69	=69
1I	D:maj	4.e	give	.	148.494	newline	voice
.	.	8d	your-	.	.	.	.
.	.	4d	-self	.	.	.	.
.	.	8B	a-	.	.	.	.
.	.	[8B	-way	B	.	.	.
=70	=70	=70	=70	=70	=70	=70	=70
1IV7	G:maj9	8B]	_	.	150.672	.	voice
.	.	4.A	_	.	.	.	.
.	.	8r	.	.	.	.	.
.	.	8d	And	.	.	.	.
.	.	8d	you	.	.	.	.
.	.	[8e	give	.	.	.	.
=71	=71	=71	=71	=71	=71	=71	=71
1I	D:maj	4.e]	_	.	152.849	.	voice
.	.	8d	your-	.	.	.	.
.	.	4d	-self	.	.	.	.
.	.	8B	a-	.	.	.	.
.	.	[8B	-way	.	.	.	.
=72	=72	=72	=72	=72	=72	=72	=72
1IV7	G:maj9	8B]	_	.	155.026	.	voice
.	.	4.A	_	.	.	.	.
.	.	8r	.	.	.	.	.
.	.	8d	And	.	.	.	.
.	.	8d	you	.	.	.	.
.	.	[8e	give	.	.	.	.
=73	=73	=73	=73	=73	=73	=73	=73
1I	D:maj	2e]	_	.	157.204	newline	voice
.	.	8r	.	.	.	.	.
.	.	8d	And	.	.	.	.
.	.	8d	you	.	.	.	.
.	.	[8e	give	.	.	.	.
=74	=74	=74	=74	=74	=74	=74	=74
1IV7	G:maj9	2e]	_	.	159.394	.	voice
.	.	8r	.	.	.	.	.
.	.	8d	And	.	.	.	.
.	.	4d	you	.	.	.	.
=75	=75	=75	=75	=75	=75	=75	=75
1vi7	B:min7	4.e	give	.	161.584	.	voice
.	.	8d	your-	.	.	.	.
.	.	4d	-self	.	.	.	.
.	.	8B	a-	.	.	.	.
.	.	[8B	-way	.	.	.	.
=76	=76	=76	=76	=76	=76	=76	=76
1IV7	G:maj9	8B]	_	.	163.773	.	voice
.	.	4A	_	.	.	.	.
.	.	8r	.	.	.	.	.
.	.	8d	With	.	.	.	.
.	.	8d	or	.	.	.	.
.	.	8d	with-	.	.	.	.
.	.	[8e	-out	.	.	.	.
=77	=77	=77	=77	=77	=77	=77	=77
*>Letter>C	*>Letter>C	*>Letter>C	*>Letter>C	*>Letter>C	*>Letter>C	*>Letter>C	*>Letter>C
*>Label>Chorus	*>Label>Chorus	*>Label>Chorus	*>Label>Chorus	*>Label>Chorus	*>Label>Chorus	*>Label>Chorus	*>Label>Chorus
1I	D:maj	8e]	_	.	165.963	newline	voice
.	.	[4.f#	you	.	.	.	.
.	.	2f#]	_	.	.	.	.
=78	=78	=78	=78	=78	=78	=78	=78
1V	A:sus4(b7)	2r	.	.	168.142	.	voice
.	.	8e	With	.	.	.	.
.	.	4e	or	.	.	.	.
.	.	[8a	with-	.	.	.	.
=79	=79	=79	=79	=79	=79	=79	=79
1vi7	B:min7	8a]	_	.	170.322	.	voice
.	.	4g	-out	.	.	.	.
.	.	4f#	you	.	.	.	.
.	.	4e	Oh	.	.	.	.
.	.	[8d	_	.	.	.	.
=80	=80	=80	=80	=80	=80	=80	=80
1IV7	G:maj9	4d]	_	.	172.501	.	voice
.	.	4r	.	.	.	.	.
.	.	8d	I	.	.	.	.
.	.	4e	can't	.	.	.	.
.	.	[8f#	live	.	.	.	.
=81	=81	=81	=81	=81	=81	=81	=81
1I	D:maj	1f#]	_	.	174.68	newline	voice
=82	=82	=82	=82	=82	=82	=82	=82
1V	A:sus4(b7)	2r	.	.	176.852	.	voice
.	.	8e	with	.	.	.	.
.	.	4e	or	.	.	.	.
.	.	8f#	with-	.	.	.	.
=83	=83	=83	=83	=83	=83	=83	=83
1vi7	B:min7	4.e	-out	.	179.024	.	voice
.	.	4d	_	.	.	.	.
.	.	[4.d	you	.	.	.	.
=84	=84	=84	=84	=84	=84	=84	=84
1IV7	G:maj9	2d]	_	.	181.196	.	voice
.	.	2r	.	.	.	.	.
=85	=85	=85	=85	=85	=85	=85	=85
1I	D:maj	4.a	Oh	.	183.368	newline	voice
.	.	4.g	_	.	.	.	.
.	.	4f#	_	.	.	.	.
=86	=86	=86	=86	=86	=86	=86	=86
1V	A:sus4(b7)	2.e	_	.	185.561	.	voice
.	.	4r	.	.	.	.	.
=87	=87	=87	=87	=87	=87	=87	=87
1vi7	B:min7	4.a	Oh	.	187.754	.	voice
.	.	4.g	_	.	.	.	.
.	.	[4f#	_	.	.	.	.
=88	=88	=88	=88	=88	=88	=88	=88
1IV7	G:maj9	4f#]	_	.	189.947	.	voice
.	.	2d	_	.	.	.	.
.	.	4r	.	.	.	.	.
=89	=89	=89	=89	=89	=89	=89	=89
1I	D:maj	4.a	Oh	.	192.14	newline	voice
.	.	4.g	_	.	.	.	.
.	.	4f#	_	.	.	.	.
=90	=90	=90	=90	=90	=90	=90	=90
1V	A:sus4(b7)	[2e	_	.	194.319	.	voice
.	.	8e]	_	.	.	.	.
.	.	4e	_	.	.	.	.
.	.	[8e	_	.	.	.	.
=91	=91	=91	=91	=91	=91	=91	=91
1vi7	B:min7	4.e]	_	.	196.498	.	voice
.	.	[8d	_	.	.	.	.
.	.	2d_	_	.	.	.	.
=92	=92	=92	=92	=92	=92	=92	=92
1IV7	G:maj9	4d]	_	.	198.677	.	voice
.	.	4r	.	.	.	.	.
.	.	8d	With	.	.	.	.
.	.	8d	or	.	.	.	.
.	.	8d	with-	.	.	.	.
.	.	[8e	-out	.	.	.	.
=93	=93	=93	=93	=93	=93	=93	=93
*>Letter>C	*>Letter>C	*>Letter>C	*>Letter>C	*>Letter>C	*>Letter>C	*>Letter>C	*>Letter>C
*>Label>Chorus	*>Label>Chorus	*>Label>Chorus	*>Label>Chorus	*>Label>Chorus	*>Label>Chorus	*>Label>Chorus	*>Label>Chorus
1I	D:maj	8e]	_	.	200.856	newline	voice
.	.	[4.f#	you	.	.	.	.
.	.	2f#]	_	.	.	.	.
=94	=94	=94	=94	=94	=94	=94	=94
1V	A:sus4(b7)	2r	.	.	203.038	.	voice
.	.	8e	With	.	.	.	.
.	.	4e	or	.	.	.	.
.	.	[8a	with-	.	.	.	.
=95	=95	=95	=95	=95	=95	=95	=95
1vi7	B:min7	8a]	_	.	205.22	.	voice
.	.	4g	-out	.	.	.	.
.	.	4f#	you	.	.	.	.
.	.	4e	Oh	.	.	.	.
.	.	[8d	_	.	.	.	.
=96	=96	=96	=96	=96	=96	=96	=96
1IV7	G:maj9	4d]	_	.	207.402	.	voice
.	.	4r	.	.	.	.	.
.	.	8d	I	.	.	.	.
.	.	4e	can't	.	.	.	.
.	.	[8f#	live	.	.	.	.
=97	=97	=97	=97	=97	=97	=97	=97
1I	D:maj	1f#_	_	.	209.584	newline	voice
=98	=98	=98	=98	=98	=98	=98	=98
1V	A:sus4(b7)	4f#]	_	.	211.761	.	voice
.	.	4r	.	.	.	.	.
.	.	8e	with	.	.	.	.
.	.	4e	or	.	.	.	.
.	.	8f#	with-	.	.	.	.
=99	=99	=99	=99	=99	=99	=99	=99
1vi7	B:min7	4.e	-out	.	213.937	.	voice
.	.	4d	_	.	.	.	.
.	.	[4.d	you	.	.	.	.
=100	=100	=100	=100	=100	=100	=100	=100
1IV7	G:maj9	4d]	_	.	216.113	.	voice
.	.	4r	.	.	.	.	.
.	.	8e	With	.	.	.	.
.	.	4e	or	.	.	.	.
.	.	8f#	with-	.	.	.	.
=101	=101	=101	=101	=101	=101	=101	=101
*>Letter>A	*>Letter>A	*>Letter>A	*>Letter>A	*>Letter>A	*>Letter>A	*>Letter>A	*>Letter>A
*>Label>Interlude	*>Label>Interlude	*>Label>Interlude	*>Label>Interlude	*>Label>Interlude	*>Label>Interlude	*>Label>Interlude	*>Label>Interlude
1I	D:maj	4.e	-out	.	218.289	newline	synthesizer
.	.	[8d	you	.	.	.	.
.	.	2d]	_	.	.	.	.
=102	=102	=102	=102	=102	=102	=102	=102
1I	D:maj	1r	.	.	220.482	.	synthesizer
=103	=103	=103	=103	=103	=103	=103	=103
1I	D:maj	1r	.	.	222.675	.	synthesizer
=104	=104	=104	=104	=104	=104	=104	=104
1I	D:maj	1r	.	.	224.868	.	synthesizer
=105	=105	=105	=105	=105	=105	=105	=105
1I	D:maj	[1d	Ooh	.	227.061	newline	synthesizer
=106	=106	=106	=106	=106	=106	=106	=106
1I	D:maj	2d]	_	.	229.239	.	synthesizer
.	.	4B	Ooh	.	.	.	.
.	.	4A	_	.	.	.	.
=107	=107	=107	=107	=107	=107	=107	=107
1I	D:maj	4.B	ooh	.	231.418	.	synthesizer
.	.	8A	_	.	.	.	.
.	.	[2A	_	.	.	.	.
=108	=108	=108	=108	=108	=108	=108	=108
1I	D:maj	2A]	_	.	233.596	.	synthesizer
.	.	2r	.	.	.	.	.
=109	=109	=109	=109	=109	=109	=109	=109
1I	D:maj	8B	Hoo	.	235.775	newline	synthesizer
.	.	[8d	_	.	.	.	.
.	.	2.d_	_	.	.	.	.
=110	=110	=110	=110	=110	=110	=110	=110
1I	D:maj	2d]	_	.	237.971	.	synthesizer
.	.	4B	Ooh	.	.	.	.
.	.	8A	_	.	.	.	.
.	.	[8B	Ooh	.	.	.	.
=111	=111	=111	=111	=111	=111	=111	=111
1I	D:maj	4.B]	_	.	240.167	.	synthesizer
.	.	8A	_	.	.	.	.
.	.	[2A	_	.	.	.	.
=112	=112	=112	=112	=112	=112	=112	=112
1I	D:maj	2A]	_	.	242.364	.	synthesizer
.	.	2r	.	.	.	.	.
=113	=113	=113	=113	=113	=113	=113	=113
*>Letter>C	*>Letter>C	*>Letter>C	*>Letter>C	*>Letter>C	*>Letter>C	*>Letter>C	*>Letter>C
*>Label>Solo	*>Label>Solo	*>Label>Solo	*>Label>Solo	*>Label>Solo	*>Label>Solo	*>Label>Solo	*>Label>Solo
1I	D:maj	1r	.	.	244.56	newline	guitar
=114	=114	=114	=114	=114	=114	=114	=114
1V	A:sus4(b7)	1r	.	.	246.741	.	guitar
=115	=115	=115	=115	=115	=115	=115	=115
1vi7	B:min7	1r	.	.	248.922	.	guitar
=116	=116	=116	=116	=116	=116	=116	=116
1IV7	G:maj9	1r	.	.	251.103	.	guitar
=117	=117	=117	=117	=117	=117	=117	=117
1I	D:maj	1r	.	.	253.284	newline	guitar
=118	=118	=118	=118	=118	=118	=118	=118
1V	A:sus4(b7)	1r	.	.	255.457	.	guitar
=119	=119	=119	=119	=119	=119	=119	=119
1vi7	B:min7	1r	.	.	257.63	.	guitar
=120	=120	=120	=120	=120	=120	=120	=120
1IV7	G:maj9	1r	.	.	259.803	.	guitar
=121	=121	=121	=121	=121	=121	=121	=121
1I	D:maj	1r	.	.	261.976	newline	guitar
=122	=122	=122	=122	=122	=122	=122	=122
1V	A:sus4(b7)	1r	.	.	264.165	.	guitar
=123	=123	=123	=123	=123	=123	=123	=123
1vi7	B:min7	1r	.	.	266.354	.	guitar
=124	=124	=124	=124	=124	=124	=124	=124
1IV7	G:maj9	1r	.	.	268.542	.	guitar
=125	=125	=125	=125	=125	=125	=125	=125
*>Label>>Fadeout	*>Label>>Fadeout	*>Label>>Fadeout	*>Label>>Fadeout	*>Label>>Fadeout	*>Label>>Fadeout	*>Label>>Fadeout	*>Label>>Fadeout
1I	D:maj	1r	.	.	270.731	newline	guitar
=126	=126	=126	=126	=126	=126	=126	=126
1V	A:sus4(b7)	1r	.	.	272.903	.	guitar
=127	=127	=127	=127	=127	=127	=127	=127
1vi7	B:min7	1r	.	.	275.076	.	guitar
=128	=128	=128	=128	=128	=128	=128	=128
1IV7	G:maj9	1r	.	.	277.248	.	guitar
=129	=129	=129	=129	=129	=129	=129	=129
1I	D:maj	1r	.	.	279.42	newline	guitar
=130	=130	=130	=130	=130	=130	=130	=130
1V	A:sus4(b7)	1r	.	.	281.608	.	guitar
=131	=131	=131	=131	=131	=131	=131	=131
1vi7	B:min7	1r	.	.	283.796	.	guitar
=132	=132	=132	=132	=132	=132	=132	=132
1IV7	G:maj9	1r	.	.	285.984	.	guitar
=133	=133	=133	=133	=133	=133	=133	=133
1I	D:maj	1r	.	.	288.172	newline	guitar
=134	=134	=134	=134	=134	=134	=134	=134
1V	A:sus4(b7)	1r	.	.	289.878	.	guitar
=135	=135	=135	=135	=135	=135	=135	=135
1vi7	B:min7	1r	.	.	291.585	.	guitar
1r;	N	r;	.	.	293.291	.	r
1r;	N	r;	.	.	296.176	.	r
*-	*-	*-	*-	*-	*-	*-	*-
!!!BillboardChartDate: 1987/06/27
!!!BillboardPeak: 1
!!!BillboardWeeksOnChart: 18
!!!COC: U2
!!!ENC: Nathaniel Condit-Schultz
!!!EST: Awating manual error checking and editing.
!!!OTL: With Or Without You
!!!RDF**harte: Chris Harte's syntax, used by MIREX
!!!RDF**harmony: **recip + pitch class of root + harmonic quality
!!!RDF**leadinstrument: original McGill primary instrumentation annotation
!!!RDF**phrase: newline = linebreak in original McGill transcription
!!!RDF**timestamp: McGill audio timestamp in seconds
!!!RDT: 2017/01/12/
!!!SampleActualRank: 38
!!!SampleID#: 0681
!!!SampleTargetRank: 38
!!!MBID: 6b9a509f-6907-4a6e-9345-2f12da09ba4b
